symbols/web/blender/materialsymbolsoutlined/blender_wght200grad200fill1_48px.svg

<svg xmlns="http://www.w3.org/2000/svg" height="48" width="48"><path d="M15.7 42.8q-.85 0-1.525-.675-.675-.675-.675-1.525v-1.95q0-2.1 1.05-3.975t3.1-3.175L15.9 21.25h-3.6q-1.4 0-2.4-1.025t-1-2.425v-6.95q0-1.4 1-2.4t2.4-1h9.4V5.2h4.8v2.25h8.25L30.8 31.5q2.05 1.3 3.1 3.175 1.05 1.875 1.05 3.975v1.95q0 .85-.675 1.525-.675.675-1.525.675Zm-.2-23.75L13.95 9.6H12.3q-.45 0-.85.4-.4.4-.4.85v6.95q0 .45.4.85.4.4.85.4Zm8.75 19.2q.75 0 1.25-.5t.5-1.25q0-.75-.5-1.25t-1.25-.5q-.8 0-1.275.5-.475.5-.475 1.25 0 .7.475 1.225.475.525 1.275.525Zm-4.6-8.1h9.15L32.15 9.6H16.1Z"/></svg>

<svg xmlns="http://www.w3.org/2000/svg" height="48" width="48"><path d="M15.7 42.8Q14.85 42.8 14.175 42.125Q13.5 41.45 13.5 40.6V38.65Q13.5 36.55 14.55 34.675Q15.6 32.8 17.65 31.5L15.9 21.25H12.3Q10.9 21.25 9.9 20.225Q8.9 19.2 8.9 17.8V10.85Q8.9 9.45 9.9 8.45Q10.9 7.45 12.3 7.45H21.7V5.2H26.5V7.45H34.75L30.8 31.5Q32.85 32.8 33.9 34.675Q34.95 36.55 34.95 38.65V40.6Q34.95 41.45 34.275 42.125Q33.6 42.8 32.75 42.8ZM15.5 19.05 13.95 9.6H12.3Q11.85 9.6 11.45 10Q11.05 10.4 11.05 10.85V17.8Q11.05 18.25 11.45 18.65Q11.85 19.05 12.3 19.05ZM24.25 38.25Q25 38.25 25.5 37.75Q26 37.25 26 36.5Q26 35.75 25.5 35.25Q25 34.75 24.25 34.75Q23.45 34.75 22.975 35.25Q22.5 35.75 22.5 36.5Q22.5 37.2 22.975 37.725Q23.45 38.25 24.25 38.25ZM19.65 30.15H28.8L32.15 9.6H16.1Z"/></svg>
